X:109
T: Die Schlangenkoechin
N: Q0079
O: Mitteleuropa, Deutschland (DDR) , Brandenburg, Wilsnack,
N: Zweite Zeile und die letzten vier Zeilen = Refrain.
R: Ballade, Mord; Reigen - Tanz, antiphonal
M: 4/4
L: 1/8
K: G
D2 | G2G2d2d2 | B2dBG4
A3GA2c2 | B2dBG2
D2 | G2G2d2d2 | BBd2G2
G2 | A2A2F2
D2 | G3GA2Bc | d4B2
d2 | e3dc2A2 | G4z2
G2A2Bc | d4B2
d2 | e3dc2A2 | G4z2

